icons/.local/share/icons/kora/mimetypes/scalable/application-x-virtual-boy-rom.svg

<svg clip-rule="evenodd" fill-rule="evenodd" stroke-linejoin="round" stroke-miterlimit="2" viewBox="0 0 48 48" xmlns="http://www.w3.org/2000/svg">
 <linearGradient id="a" x2="1" gradientTransform="matrix(0 -49.619 49.619 0 615.22 51.088)" gradientUnits="userSpaceOnUse">
  <stop stop-color="#923466" offset="0"/>
  <stop stop-color="#cd6979" offset="1"/>
 </linearGradient>
 <path transform="matrix(.75 0 0 .75 0 .199125)" d="m54 3.146c0-.926-.751-1.677-1.677-1.677h-34.705c-2.02 0-3.958.803-5.387 2.231-1.428 1.429-2.231 3.367-2.231 5.387v45.295c0 2.02.803 3.958 2.231 5.387 1.429 1.428 3.367 2.231 5.387 2.231h28.764c2.02 0 3.958-.803 5.387-2.231 1.428-1.429 2.231-3.367 2.231-5.387z" fill="url(#a)"/>
 <path transform="translate(1 -6)" d="m15 20 4 20 4-20h-2l-2 11-2-11zm10 0v20h4s2 0 2-2v-7c0-1-1-1-1-1s1 0 1-1v-7c0-2-2-2-2-2zm2 2h2v7h-2zm0 9h2v7h-2z" fill="#fff" fill-opacity=".5" fill-rule="nonzero"/>
</svg>

<svg xmlns="http://www.w3.org/2000/svg" width="48" height="48" version="1.1">
 <path style="opacity:0.2" d="M 10,5 C 8.892,5 8,5.892 8,7 V 43 C 8,44.108 8.892,45 10,45 H 38 C 39.108,45 40,44.108 40,43 V 17 L 28,5 Z"/>
 <path style="fill:#e32037" d="M 10,4 C 8.892,4 8,4.892 8,6 V 42 C 8,43.108 8.892,44 10,44 H 38 C 39.108,44 40,43.108 40,42 V 16 L 30,14 28,4 Z"/>
 <path style="opacity:0.2" d="M 40,17 28,5 V 15 C 28,16.108 28.892,17 30,17 Z"/>
 <path style="fill:#ff6565" d="M 40,16 28,4 V 14 C 28,15.108 28.892,16 30,16 Z"/>
 <path style="opacity:0.2;fill:#ffffff" d="M 10 4 C 8.892 4 8 4.892 8 6 L 8 7 C 8 5.892 8.892 5 10 5 L 28 5 L 28 4 L 10 4 z"/>
 <path style="opacity:0.2" d="m 15,21 4,20 4,-20 H 21 L 19,32 17,21 Z m 10,0 v 20 h 4 c 0,0 2,0 2,-2 v -7 c 0,-1 -1,-1 -1,-1 0,0 1,0 1,-1 v -7 c 0,-2 -2,-2 -2,-2 z m 2,2 h 2 v 7 h -2 z m 0,9 h 2 v 7 h -2 z"/>
 <path style="fill:#ffffff" d="M 15 20 L 19 40 L 23 20 L 21 20 L 19 31 L 17 20 L 15 20 z M 25 20 L 25 40 L 29 40 C 29 40 31 40 31 38 L 31 31 C 31 30 30 30 30 30 C 30 30 31 30 31 29 L 31 22 C 31 20 29 20 29 20 L 25 20 z M 27 22 L 29 22 L 29 29 L 27 29 L 27 22 z M 27 31 L 29 31 L 29 38 L 27 38 L 27 31 z"/>
</svg>
